X:214 
T:Tinker's Bib (reel), The
S:Jack Wade
F:file ID: cre.4/214tink_b
B:CRE4.192 (Praiscin an Tinceara)
L:1/8
Q:180
M:4/4
R:reel
K:A
af|eA~A2 eAfA|eA~A2 fecA|Bcdf bBBA|Bcde fagf|
eA~A2 eAfA|eA~A2 fecA|Bcde fagf|edcB A2:|
(3efg|aA~A2 aAaA|aA~A2 fece|bB~B2 bBbB|bB~B2 bafg|
aA~A2 aAaA|aA~A2 fecA|Bcde fagf|edcB A2:|

%%%

